X:1
T:Title
%%score ( 1 2 ) ( 3 4 )
L:1/8
Q:1/4=122
M:3/4
K:F#
V:1 treble nm="Piano, Piano dx" snm="Pno."
V:2 treble 
V:3 bass nm="Piano, Pianp sin" snm="Pno."
V:4 bass 
V:1
 z6 | z/ c/f/e/ (5:4:5f/c/A/F/c/ (5:4:5A/F/C3/4A/F/4- | %2
 (3F/4C3/4A,/-A, B/4g/4-g/4<f/4g/e/ (5:4:5B/G/e/B/G/ | z .G z z/ z/4 z/8 c/8- c2 | %4
 z e z/ z/4 f/4-f z2 | z6 | .fF/E/ .F/>f/e/.f/ (3:2:4z/ F/E.F | %7
 (3:2:4z/ f/ef (3z/4 e3/4d/ z/16 e3/16-e3/4 .cA | ^B3/2-B/4 z/4 .d.G B.c/>c/- | %9
 [Fc] ^B2 c/d/ E/>F/-F/4<G/4 z/ | .dG gf/e/ d/e/c/G/ | c/^B/c/G/ (5:4:5E/C/G/E/C/ G,/E/C/G,/ | %12
 z2 z2 z/4 .B3/4 z | G/E/C/G,/ (5:4:5z/ c/f/e/f/ c/A/F/c/ | .A/C/A/F/ C/.A,c/ =e/d/e/c/ | %15
 A/F/c/A/ F/C/A/F/ C/.A,3/8 z/16 d/16-d | G2 A/B/.c F2 | G/A/B/A/ B/c/(3B/d/c/ B/ z/8 A3/8G/A/ | %18
 z6 | z2 z2 .B2 | .c2 z2 z2 | z2 z/ A,/G,/A,/ (3:2:2G,/F,-F,- | %22
 F,/-[F,A,]/G,/A,/ (5:4:5F,/G,/[K:treble]A,/B,/C/ F/E/.D/D/ | C2 E/D/E/D/ C2 | %24
 E/D/C z/4 .E/4-.[EF]/G/ z/4 A/4- A<B | z z/ c/ B3/8-B/16c/16-c/.B z z/ c/ | %26
 B3/8-B/16c/16-c/A/B/ c/d/=e/d/ c/e/d/c/ | B/d/c/B/ A/.G/c/B/ A/c/B/A/ | %28
 G/.F/B/A/ G/B/A/G/ F/A/G/E/ | c/^B/c/G/ E/C/G/E/ C/G,/E/C/ | %30
 (3G,/-[E,-G,]/E,/ z [Bc]/g/f/g/ e/c/ (3:2:4z/4 G/4e3/4c/4- | c/EG/- [EG] z/4 F/4E/ z z/ A/ | %32
 G/.A/.G z z/ G/ A/B/c/f/ | e/d/c/ z/4 c/4- [Bc]A/G/ A/B/A/c/ | B/.A/G/F/ G/A/G/B/ A/.G/F/E/ | %35
 z2 .G2 z2 | z z/ E/- E2 z2 | G/A/.G/C/ ^B,/C/A/B/ A/G/F/E/ | D/.C/^B,/A,/ G,/A,/B,/C/ D/E/F/E/ | %39
 F/G/F/A/ G/F/E/D/ .CE/F/ | G/A/.B B/.cd/ c/.B/A/.c/ | z2 c2 z .c | c/<.c/ z/ G/- G2 z2 | %43
 .E/.G,/-.[G,E] .C/>E,/-E, B/g/f/g/ | e/B/G/e/ B/G/E/B/ G/E/4C/4-C/8<A/8.G/4A/ | %45
 .[FG]2 d2 e/f/g/f/ | e/f/.g .G(3c/4^B/4c- c2 | d/e/f/e/ d/e/.f (3:2:4z/ F/E.F | %48
 (9:8:12z3/8 f3/8e3/4.f3/4 z3/8 F3/8E3/4F3/4 z3/8 f3/8e3/4f3/4 | %49
 (3e/8[ef]/8-[e-f]/e/d/<.e/ z/4 z/16 c3/16 z/ A ^B2 | (3cdG ^B2 (5:4:4c/B/c/F | ^B2 c/d/.E F/G/A | %52
 dG g z/ e/- [de]<.e | z z/ e/ d/e/.d z z/ e/ | d/e/c/d/ e/f/g/b/ a/g/a/c/ | %55
 f/e/f/ z/4 d/4- [cd]/A/4G/4-G/8.F/4E/8 z/ z z/ A/ | G/A/.G z z/ A/ G/A/F/G/ | %57
 A/B/c/=e/ d/c/d B z/ d/ | c/d/G/A/ G/^^F/G/=E/ D/E/c/^B/ | c2 z2 z2 | ^^C/.D/B/<.A/ B>G ^^F/G/.c | %61
 C/^B,/.C c/^B/.c C/B,/.C | (3:2:4z/ c/^Bc z/ ^^F/(3G/8F/8[FG-]/G/ A.D | %63
 dc/B/ A/B/G/d/- (3:2:4d/g/^^f.g | z z/4 d3/4 z z/4 .B3/4 z2 | .d/g/^^f/g/ d/^B/G/d/ B/G/D/B/ | %66
 .G2 z2 z B | B4 z2 | z2 .G2 z/ .B3/2 | .^^F.E E/G/A/G/ (5:4:4F/G^^C/^B,/- | %70
 [B,^^C]/A/G/F/ (3E/F3/2C- C2 | .DG ^^C2 DA/C/ | z z/ ^^F/ G/A/B/G/ F/G/=e/d/ | %73
 ^^c/d/c/A/ ^B/c/.d/e/ f/e/g/f/ | e/d/f3/4-f/8<e/8 .[ef]>d A/d/^^c/d/ | %75
 A/F/D/A/ F/D/A,/F/ D/A,/.F, | z2 z2 .A2 | (3^^F-[D-F][A,D] (3^^F,/G,3/2f- fg/f/ | %78
 (3e/f/- f2- fd/^B/ G/e/f/e/ | d/e/c/^B/ c/e/A/=A/ (5:4:4^A/f/e/d | d/e/d/^^c/ z/ .^B^B/- [Bd]>B | %81
 d/e/d/ z/4 ^B/4- B A2 ^A- | (7:8:9A3/8d3/4A-A/8=A3/4^A3/4e-e/8A3/8- | %83
 (3A=A3/2^A/- A/.fd/ c/^B/c/d/ | .A=A/d/ ^A/d/^B/d/ c/B/.e | z E z ^A z/ z/4 =A/4-A/E/- | %86
 EE A,[K:bass]C z2 | ^B/d/c/d/ B/=A/E/B/ A/E/^B,/A/ | %88
 E/ z/4 =A,/4-A, .[Ac]/.[^Bd]/.[ce] .[Ac][^^FA] | .[Ac].[D^^F] .[FA]2 [GB]/[Ac]/.[Bd] | %90
 .[GB].[EG] .[GB].[CE] (3.[EG] z [F-A] | [F-B]/[FG]/A/F/ .EB/c/ B/A/B/F/ | %92
 E/F/c/d/ c/^B/c/F/ E/F/d/=e/ | d/c/B/A/ (3GF.E F/E/D/E/ | .CC G/F/E/F/ C/^B,/.C/G/ | %95
 A/G/^^F/.G/ C/^B,/.C/.A/ (5:4:4B/A/-[GA]^F/ | E/D/.C/C/ B,2 C/B,/.A,/A,/ | %97
 B,2 C/B,/.A, E/G/-[FG]/E/ | D/C/.B,/B,/ A,2 B,/A,/.G,/G,/ | %99
 z z/ B,/ A,/G,/A,/D/ (3:2:4F/E3/2D/C/ | .^B,.A,[K:bass] G,2 A,/G,/.F,/F,/ | %101
 G,2 A,/G,/.F,[K:treble] A,/-[A,^B,]/C | z2 z2 z G | B/d/G/A/ B/c/d/.e/ .f.g | %104
 z2 .f3/2 z/4 e/4- e<.c | F/c/A/.F/ AF/C/ (3A, z B | z z/ e/- e2 z2 | %107
 .EA/.G/ z z/ A/ G/A/ z/4 .F/C/4 | z z/ A/ .GF/.G/ A/.B/c/=e/ | z .d z2 z2 | %110
 z2 z/ G/F/G/ (3F/E/- E2- | E/-[EG]/F/.G/ (5:4:4E3/4F3/4G/.A/ Bd/c/ | z/ .c3/2 z2 z2 | %113
 F/E/F/D/ (5:4:4^^C3/4D/4cB/- B2 | .A2 z2 z2 | (3:2:2A A2 z/ .FF/ .BB,/A,/ | %116
 .B,B A/<.B/B,/A,/ .B,B/A/ | B/e/f/g/ f/e/d/c/ B/A/G/F/ | %118
 .GF3/8-F/16-[EF-]/16[E-F]/ (3:2:4E/F/c.f .e/.f/c/A/ | F/c/A/F/ C/A/F/C/ (3A, z B | %120
 z/ z/4 g/4-g z2 z2 | C/.A z/4 F/4 d4 | e/f/g/f/ e/f/.g c2- | c2- c/-<[cd]/e/f/ z/ .d/-.[de] | %124
 .fF E/<.F/ z/ f/ (3ef z | z2 z2 z/ .e3/2 | (3:2:4z/ .c/ z A ^B2- (3:2:4B/c/dG | %127
 ^B2 c/B/c/>F/ B2- | (7:8:10B-B/8c3/8d3/8E-E/8F3/8G3/8A3/4d3/4 | .G2 g/f/e/d/ (3ecG | %130
 c/^B/c G/E/C/G/ E/C/G,/E/ | C/G,/4>E,/4-E, (5:4:5G/.e/d/ z/4 e3/4 c/G/E/c/ | %132
 G/E/.C E/C/.G, c/f/e/f/ | c/A/F/c/ A/F/C/A/ F/C/.A, | c/.=e/.d/.e/ c/A/.F/c/ A/.F/C/A/ | %135
 z/4 C/4-C/8>A,/8-A,/4.d G3/2-G/4A/4 (3.[GAB]B.c | %136
 F3/2-F/4>G/4 (5:4:5[FG]/G/-[GA-]/A/4B3/4 c/B/.A | dc/.B/ .AA B/A/c/B/ | %138
 (9:8:11.A3/4G3/4F3/8G3/4A3/8G3/4A3/8F3/4G3/8A3/4G3/4 | A/B/A/B/ z/ .AA/- A/.c/-.[Bc] | %140
 .A/G/F/4-F/8<c/8 z/ F>C- C[B,E] | [A,CF]6 | z6 |] %143
V:2
 x6 | x6 | x6 | E/B/ z/4 E3/4 C/<.A/.F3/4 z/8 d/8 d2- | d z/ f/- [f-g]/>f/e/f/ .g.G3/4 z/8 c/8- | %5
 (3c/4^B/4c- c2 d/e/ f/e/d/e/ | x6 | x6 | z z/ z/4 c/4- c2 z z/4 ^B3/4 | z2 z2 z z/ A/- | %10
 A2 z2 z2 | x6 | .E,G/e/ d/e/B/G/ .E/G/E/C/ | x6 | z/4 .F3/4 z z2 z2 | x6 | x6 | x6 | %18
 B/A/c/B/ .A/G/F/.G/ .A/G/8>A/8-A/4 (3z/4 F3/4G/- | %19
 (3:2:4G/A/GA (5:4:6B/A/B/ z/4 G/A/4- A/.A/-.[AB] | z/4 .B/4-.[AB]/G/F/ .cF C/-C/4<.[EF]/4E | %21
 F,4 z2 | x14/5[K:treble] x16/5 | x6 | z/ z/4 z/8 E/8-E .D>B GA- | A2 z2 A2 | x6 | x6 | x6 | x6 | %30
 x6 | Gc z .C F2 | z2 F2 z2 | z z/ z/8 z/16 B/16-B/4 z2 z2 | x6 | F/G/F/A/ z/ F/E/D/ E/F/E/C/ | %36
 ^B,/C/.F F/G/.F/C/ B,/C/G/F/ | x6 | x6 | z2 z2 z/ .D3/2 | z z/ A/- AB z2 | %41
 ^B/d/c/<.B/ z z/ B/ c/A/ z/4 B/4-[A-B]/4A/8<B/8 | %42
 z/8 ^B/4B/8B/4-B/8-<[Bc]/8.c c/B/c/G/- (3:2:4G/E/CG | z/4 .C3/4 z z/ .G,3/2 z2 | x6 | x6 | x6 | %47
 x6 | x6 | x6 | x6 | x6 | z2 z f z c- | c2 z2 c2 | x6 | z z/ e/ z/4 .B3/4 z F2 | z2 F2 z2 | x6 | %58
 x6 | z z/ B/ A/G/^^F/G/ F/E/F/D/ | x6 | x6 | x6 | x6 | d/.B/.G/B/- [GB].D/G/- (3:2:4G/D/^B, z | %65
 x6 | z/ D/.^B,/>.B/ (3A/4 z/4 B/4-B3/2 c z/ A/ | z/8 z/16 A/16-A3/4 z z d/c/ (5:4:4B3/4A3/4F/E/ | %68
 F/A/B/A/ z/ A/D/^^C/ .DA/G/ | z/ GD/- D2 z2 | x6 | x6 | D2 z2 z2 | x6 | x6 | x6 | %76
 z/ A/d/^^c/ d/A/^^F/D/ z/ F/-[DF]/A,/ | x6 | x6 | x6 | z2 d=B z =A | z z/ c/ c2 =A2 | x6 | %83
 z2 z e z2 | x6 | .A3/2=A/4-[A^A-]/4 [=AA] z/4 E/4E/- [E-^A]/>E/^A | %86
 .C/-.[A,C]C/- C/[K:bass]E,A,/- [E,-A,]/E,/4C,/4-C, | x6 | z/ .^B,3/2 z2 z2 | x6 | x6 | %91
 z/4 .A3/4 z z/ .F3/2 z2 | x6 | x6 | z/ ^B,F/- F2 z2 | x6 | x6 | z2 z z/ B,/- B,2 | x6 | %99
 A,2 z2 z2 | x2[K:bass] x4 | z2 z z/[K:treble] G,/- G,2 | D/F/E/D/ E/G/C/D/ E/.FA/ | x6 | %104
 ce z/ c/f .fA | z z/ z/4 C/4- C2 z2 | .g/.f/4g/4-g B/G/e/B/ G/E/B/G/ | z/ .C3/2 F2 z .G | %108
 F2 z/ .A3/2 z2 | d/c/ z/4 .c/4-.[B-c]/ (3B/F3/2B,- B, z/ [=E^E]/ | E4 z2 | x6 | %112
 B/ z/4 B/4-B A2 .cF/G/ | x6 | z/ G/F/E/ F/E/D/E/ C/^B,/(3C/4B/4-B | z2 z E z2 | x6 | x6 | %118
 z/ z/4 E/-<E/-E3/16 z/16 z2 z2 | x6 | g/<.f/e/B/ G/e/B/G/ E/B/G/E/ | x6 | z2 z z/ G/- G2 | %123
 z2 z2 .e2 | x6 | F/E/ z/8 F3/8 z/ fe/<f/e/4<.f/4 z/4 d/4-[de] | x6 | x6 | x6 | x6 | x6 | x6 | %132
 z z/ G/- G2 z2 | x6 | x6 | .F2 z2 z2 | z2 z2 z z/ B/- | B2 z/ .G3/2 z2 | x6 | z2 GB .B2 | x6 | %141
 x6 | x6 |] %143
V:3
 z6 | F,,2 .F,2 z2 | z E,, z E, z2 | z2 z F, (3:2:4E,/F,/ z .D, | %4
 ^B,, z/4 .D,3/4 B,,G,, .E,,E,/D,/ | E,.C, .A,,C, A,,F,, | %6
 D,,D, (3:2:2C,C,,/ z/ ^B,,,/- (3B,,,/^B,,3/2A,, | A,G, G,,C, .E,F,, | %8
 F,/E,/F, .D,E,,/E,/ D,/.E,.C,/ | D,,D,/C,/ .D,.G,, z/ D,,/4-[D,,E,,-]/4[E,,F,,-] | %10
 F,,2 E,,F,, G,,C,, | .C,2 z2 z2 | B,,,2 .B,,2 z2 | z2 (3:2:2A,, A,2 z2 | z2 z F,, .F,2 | %15
 z2 z2 z B,, | B,E, G,A,, A,D, | F,G,, G,C, (3E,F,,3/2F,/- | %18
 (7:8:10F,3/8D,-D,/8A,,3/4^B,,3/4^B,,,3/8 z3/8 B,,,3/4 z3/8 B,,3/8 | %19
 z/ C,C,,/ z/ C,,/ z/4 .C,3/4 (3z/ D,3/2.D,, | .D,,D, A,,/G,,/A,,/B,,/ C,C,, | %21
 .F,,.F,, .F,,,2 z .F,, | z2 z/ F,,A,,/- A,,2 | .E,,C,/C,,/- C,,2 C,2 | %24
 .C,,2 (3:2:4z/ C,/D,E, .C,F, | FF, z2 .F.F, | z2[K:bass] .F,A,, F,B,, | D,G, B,,A,, C,F, | %28
 A,,G,, E,F, .F,,C, | .C2 z2 z2 | z2 B,4 | z2 z2 (3z/ A,,/G,,/F,, | E,,D,, D,C, B,,A,, | %33
 B,,C, z/8 C,,3/8 z/ F,, F,/E,/F, | D,E,, E,/D,/E, (3:2:4z/ .C,/ z D,, | %35
 D,/C,/.D, .G,,C,, C,/^B,,/C, | .C,,D,, D,/C,/D, .D,,E,, | E,/D,/E, E,,F,, G,,A,, | %38
 .F,,.G,, .G,,,>G, F,/E,/D, | ^B,,G,, B,,C, C,, z/[K:treble] C/ | B,/A,/G, E,[K:bass]C, E,F, | %41
 D,E,/G,/ F,/A,/G, ^^F,G, | .G,,C,, C,2 z2 | z2 z E,, E,2 | z6 | F,/E,/F, D,^B,, D,B,, | %46
 G,,.E,, E,/D,/E, C,A,, | C,A,, F,,D,, z/4 D,3/4C,- | %48
 (7:8:9C,3/8C,,3/8 z3/8 ^B,,,3/4^B,,-B,,/8.A,,3/4.A,3/4G,3/4 | G,,C, E,F,, (3:2:4z/ F,/E,F, | %50
 (3:2:4z/ D,/ z E,, z/ E,/D,/E,/- E,/A,,/ z/4 D,,3/4 | D,/C,/D, .G,,C,, z/ E,,/F,,- | %52
 F,,2 E,,F,, G,,.C,, | .C z/8 E,3/8 z/ .G,.C, .E,.G,, | .C,.E,, .G,,.C,, .C,F,, | .F,2 z2 .F,.A,, | %56
 .C,.F,, .A,,.C,, .F,,.A,,, | .C,,.F,, .F,,.B,,, z/8 z/16 D,/16 z/4 C,/B,, | %58
 B,=E, D,/D,/C, (3z/ B,,3/2A,, | (3:2:4z/ C,/B,,A,, C,D, C,B,, | A,,.G,, B,,/A,,/G,, .B,,A,, | %61
 .A,G, .G,,^^F,, ^^F,G, | A, z/ D,/ (5:4:5=E,/D,/-[C,D,]/B,,/A,,/ G,,/.^^F,,A,,/ | %63
 B,,/C,/D, .D,,2 G,2 | z6 | F,,F, z2 z2 | z2 (3:2:2E,,2 E, (3F,/E,3/2D, | %67
 (7:8:9C,-C,/8D,-D,/8E,3/4C,3/4 z3/8 F,,3/4F,3/8- | F, z/ z/8 F,,3/8 (3z B,,,3/2B,,/ A,,<G,, | %69
 .B,,.E,, .E,>E,, (3z A,,,3/2A,,/ | G,,<.F,, A,,/D,,/F,,/A,,/ G,,/F,,/E,,/F,,/ | %71
 (3D,,E,,.G,, B,,/A,,/G,,/F,,/ G,,/E,,/^^F,,/A,,/ | C,/=E,/D,/C,/ B,,/A,,/G,, D,G,/^^F,/ | %73
 G,2 F,/E,/F, D,B, | (5:4:5G,3/2A,3/2A,,3/2D,,3/2D,3/2 | z6 | C,,C, z2 z2 | z6 | z2 z2 .G,2 | %79
 z2 z z/ F,/- F,<.D, | z2 z2 z z/ E,/- | E,2 z2 z2 | E,/^B,,/E,/D,/ E,/F,/E,/D,/ E,/C,/E,/D,/ | %83
 z/ .F,3/2 z2 F,2 | z6 | D,/F,/E, E,,A,, A,2 | z6 | .E,,E, z2 z2 | z z/4 .A,3/4 z2 z2 | %89
 .D,,2 D,G,/D,/ B,,/.D,A,,/ | B,,/G,,/C, .C,,2 .C,F,, | F,/E,/.F, .F,,G,, G,/F,/G, | %92
 .G,,A,, A,/G,/.A, .A,,B,, | z2 z .C,3 | %94
 (9:8:10C,3/4E,3/4C,3/8D,-D,/8D,,3/2 D,,3/4.F,,3/4D,,3/8E,,3/8- | E,,<C, C,/D,/.E, .F,.F,, | %96
 z/ E,,/F,,/G,,/ A,,/B,,/.A,, .G,,>E,, | F,,/G,,/.F,, D,,2 C,2 | %98
 z/ D,,/-[D,,E,,]/F,,/ G,,/A,,/.G,, .F,,E,,/D,,/ | E,,/F,,/E,,/<D,,/ C,,^B,,, D,/C,/^B,,/C,/ | %100
 z2 z z/ F,/- F,2 | z2 z z/ F,/- F,2 | ^B,,/.G,,B,,/ .C,E,/F,/ G,/A,/G,/F,/ | z/ .F,3/2 z2 z2 | %104
 C,C,, F,, .F,3 | z2 z2 z C, | .C2 z2 z2 | z2 z/4 F,3/4.A,, .C,.F,, | %108
 .A,,.C,, .F,,.A,,, .C,,.F,,, | .F,,B,,, .B,,2 (3C,B,,.A,, | %110
 G,,/F,,/E,,/F,,/ G,,A,, B,,/C,/B,,/A,,/ | B,,D, (3z/ .G,,3/2B,, E,,2 | z A,, z2 z2 | %113
 D,/C,/B,, A,,G,, G,2 | z2 z/ .C,3/2 z2 | F,,.F, F,,G,,/A,,/ G,,G, | %116
 (3:2:2F,2 .F,, E,,E, z/ E,/F,/.G,/ | C,C,, (3:2:2D,,2 E,, F,,D,, | B,,,C,, .F,,2 .F,2 | %119
 z2 z2 z E,, | .E,2 z2 z2 | z2 F,/E,/F, D,^B,, | D,^B,, G,,.E,, (3:2:4z/ E,/D,E, | %123
 (5:4:5C,3/2A,,3/2C,3/2A,,3/2F,,3/2 | (5:4:5.D,,3/2.D,3/2C,3/2.C,,3/2^B,,,3/2 | %125
 (7:8:9^B,,-B,,/8A,,3/4A,3/8 z3/4 G,3/4G,,-G,,/8C,3/8- | %126
 (3C,/.E,3/2F,,- (3:2:4F,,/F,/E,F,- (3F,/D,3/2E,, | (3:2:4z/ E,/D,E,- E,C, .D,,D,/C,/ | %128
 D,G,, C,, z/ E,,/- [E,,F,,-]2 | (5:4:5F,,3/2E,,3/2F,,3/2G,,3/2C,,3/2 | C,2 z2 z2 | %131
 z B,,, B,,2 z2 | z2 z A,, A,2 | z2 z2 z F,, | F,2 z2 z2 | z B,, B,E, G,A,, | %136
 (5:4:5A,3/2D,3/2F,3/2G,,3/2G,3/2 | C,E,3/4 z/4 .F,,2 D,2 | z ^B,, z2 z2 | %139
 .C,,.C,, (3C, z D,- (3:2:4D,/D,,/ z .D,, | (3z/ .D,3/2A,, .G,,/>B,,/-B,,/C,/- C,.C,, | F,,6 | %142
 z6 |] %143
V:4
 x6 | x6 | x6 | x6 | x6 | x6 | x6 | x6 | x6 | z2 z2 .C,,2 | x6 | x6 | x6 | x6 | x6 | x6 | x6 | x6 | %18
 x6 | x6 | x6 | x6 | .F,,,2 z G,, F,,2 | x6 | x6 | x6 | x2[K:bass] x4 | x6 | x6 | x6 | B,,4 z2 | %31
 x6 | x6 | x6 | x6 | x6 | x6 | x6 | x6 | x11/2[K:treble] x/ | x3[K:bass] x3 | x6 | x6 | x6 | x6 | %45
 x6 | x6 | x6 | x6 | x6 | x6 | z2 z2 .D,,2 | x6 | x6 | x6 | x6 | x6 | x6 | x6 | x6 | x6 | x6 | %62
 z2 z2 z G,, | z2 z .G,,3 | x6 | x6 | x6 | x6 | x6 | x6 | x6 | x6 | x6 | x6 | x6 | x6 | x6 | %77
 z2 ^B,,,>^B,, (3C,/B,,3/2A,,- | [G,,-A,,]G,,/G,/ .A,.^B, z/ .C,3/2 | .C2 .C,.F,, .E,F, | %80
 (3:2:2^B,,2 ^B, z z/4 B,,3/4 E,,2 | D,<.C, E,/A,,/E,/D,/ E,/F,/E,/D,/ | x6 | %83
 .E,E,/D,/ (3C,D,3/2E,/- E,>^B,,- | [B,,E,]2 ^^F,=A,/^B,/ E,/D,/C,/E,/ | x6 | x6 | x6 | %88
 z/ E,/-E,/4 z/4 E,/ C,/E,/A,,/^B,,/ C,/A,,/D, | z2 z2 z G,, | x6 | x6 | x6 | C,D, .B,,2 C,,2 | %94
 x6 | x6 | .D,,2 z2 z F,, | z z/ E,,/- E,, .C,,3 | .C,,2 z2 z2 | x6 | %100
 (3D,C,.^B,, C,/D,/.E, D, z/ B,,/ | A,,/G,,/A,, .^B,,.D, E,D,/C,/ | z A,, z/ .D,3/2 z2 | %103
 .E,E,/-[D,E,]/ C,/B,,/A,,/G,,/ A,,B,, | x6 | x6 | x6 | x6 | x6 | x6 | x6 | x6 | %112
 .G,,>B,, C,/B,,/A,,/G,,/-G,,/8<.F,,/8 z/4 E,,/D,, | x6 | G,,/A,,/.B,, .C,,.B,, .A,,.G,, | x6 | %116
 x6 | x6 | x6 | x6 | x6 | x6 | x6 | x6 | x6 | x6 | x6 | x6 | z2 z D,, z2 | x6 | x6 | x6 | x6 | x6 | %134
 x6 | x6 | x6 | z z/ z/4 E,,/4- E,, .F,3 | .A,,>^B,,, z/ z/4 B,,,/4-B,,, .^B,,C, | x6 | %140
 z2 z/ .A,,3/2 z2 | x6 | x6 |] %143

